Numix-GalliumOS/24/mimetypes/application-x-cd-image.svg

<?xml version="1.0" encoding="UTF-8" standalone="no"?>
<svg
   xmlns:dc="http://purl.org/dc/elements/1.1/"
   xmlns:cc="http://creativecommons.org/ns#"
   xmlns:rdf="http://www.w3.org/1999/02/22-rdf-syntax-ns#"
   xmlns:svg="http://www.w3.org/2000/svg"
   xmlns="http://www.w3.org/2000/svg"
   xmlns:sodipodi="http://sodipodi.sourceforge.net/DTD/sodipodi-0.dtd"
   xmlns:inkscape="http://www.inkscape.org/namespaces/inkscape"
   width="24"
   height="24"
   viewBox="0 0 24 24"
   id="svg2"
   version="1.1"
   inkscape:version="0.48.5 r10040"
   sodipodi:docname="application-x-cd-image.svg">
  <metadata
     id="metadata16">
    <rdf:RDF>
      <cc:Work
         rdf:about="">
        <dc:format>image/svg+xml</dc:format>
        <dc:type
           rdf:resource="http://purl.org/dc/dcmitype/StillImage" />
      </cc:Work>
    </rdf:RDF>
  </metadata>
  <defs
     id="defs14" />
  <sodipodi:namedview
     pagecolor="#ffffff"
     bordercolor="#666666"
     borderopacity="1"
     objecttolerance="10"
     gridtolerance="10"
     guidetolerance="10"
     inkscape:pageopacity="0"
     inkscape:pageshadow="2"
     inkscape:window-width="1280"
     inkscape:window-height="970"
     id="namedview12"
     showgrid="true"
     inkscape:zoom="29.5"
     inkscape:cx="17.07011"
     inkscape:cy="12.047421"
     inkscape:window-x="0"
     inkscape:window-y="0"
     inkscape:window-maximized="1"
     inkscape:current-layer="svg2">
    <inkscape:grid
       type="xygrid"
       id="grid3004"
       empspacing="5"
       visible="true"
       enabled="true"
       snapvisiblegridlinesonly="true" />
  </sodipodi:namedview>
  <path
     style="fill:#dcdcdc"
     d="M 5,1 C 4.527343,1 4,1.527344 4,2 l 0,20 c 0,0.445312 0.554687,1 1,1 l 14,0 c 0.445313,0 0.992367,-0.554753 1,-1 L 20,7 14,1 z"
     id="path4"
     inkscape:connector-curvature="0"
     sodipodi:nodetypes="ssssssccs" />
  <path
     style="fill:#000000;fill-opacity:0.19599998"
     d="m 15,7 5,5 0,-5 z"
     id="path6"
     inkscape:connector-curvature="0"
     sodipodi:nodetypes="cccc" />
  <path
     style="fill:#ffffff;fill-opacity:0.39200003"
     d="m 14,1 6,6 -5,0 C 14.554688,7 14,6.445312 14,6 z"
     id="path8"
     inkscape:connector-curvature="0"
     sodipodi:nodetypes="ccssc" />
  <path
     style="fill:#888888"
     d="M 12,9 C 9.241746,9 7,11.237613 7,14.002665 7,16.762387 9.241746,19 12,19 14.758254,19 17,16.762387 17,14.002665 17,11.237613 14.758254,9 12,9 z m 0,3.638786 c 0.750798,0 1.363153,0.607352 1.363153,1.363879 0,0.751199 -0.612355,1.363879 -1.363153,1.363879 -0.750798,0 -1.363152,-0.61268 -1.363152,-1.363879 0,-0.756527 0.612354,-1.363879 1.363152,-1.363879 z"
     id="path10"
     inkscape:connector-curvature="0" />
</svg>

<svg xmlns="http://www.w3.org/2000/svg" viewBox="0 0 24 24">
 <path d="m 5 1 c -0.473 0 -1 0.527 -1 1 l 0 20 c 0 0.445 0.555 1 1 1 l 14 0 c 0.445 0 0.992 -0.555 1 -1 l 0 -15 -6 -6 z" style="fill:#dcdcdc"/>
 <path d="m 15 7 5 5 0 -5 z" style="fill:#000;fill-opacity:0.196"/>
 <path d="m 14 1 6 6 -5 0 c -0.445 0 -1 -0.555 -1 -1 z" style="fill:#fff;fill-opacity:0.392"/>
 <path d="m 12 9 c -2.758 0 -5 2.238 -5 5 0 2.76 2.242 4.997 5 4.997 2.758 0 5 -2.238 5 -4.997 0 -2.765 -2.242 -5 -5 -5 z m 0 3.639 c 0.751 0 1.363 0.607 1.363 1.364 0 0.751 -0.612 1.364 -1.363 1.364 -0.751 0 -1.363 -0.613 -1.363 -1.364 0 -0.757 0.612 -1.364 1.363 -1.364 z" style="fill:#888"/>
</svg>
